asset/Perancak.svg

<svg width="100" height="100" viewBox="0 0 100 100" fill="none" xmlns="http://www.w3.org/2000/svg">
<g clip-path="url(#clip0_2568_2237)">
<path d="M39.6023 22.0777C40.033 17.3617 38.7722 12.0883 34.8575 9.35247C30.9429 6.61667 24.202 8.16333 23.2351 12.8012C22.0226 18.6166 29.7877 23.222 29.2299 29.1337C28.8601 33.0528 25.067 35.5909 22.1264 38.2488C17.1722 42.7267 13.9072 48.986 13.092 55.5684C12.6502 59.1363 13.7561 63.7843 17.3564 64.3198C18.2495 60.1195 20.034 56.1061 22.5611 52.6139C27.5823 57.2169 29.4012 64.3935 34.1045 69.3129C36.1959 71.5004 38.8636 73.2542 40.2488 75.9336C41.8615 79.0531 41.4307 82.8554 42.7636 86.1011C44.0965 89.3469 49.0743 91.5658 51.0048 88.6274C52.3817 86.5318 50.9154 83.6966 51.5197 81.271C52.3747 77.8394 56.6342 76.7709 59.6911 74.9324C63.5217 72.6286 65.8401 68.5722 68.8805 65.3165C71.9208 62.0609 76.6921 59.4539 80.7731 61.2914C83.7413 62.6279 86.8832 66.1033 89.4584 64.1261C90.2473 63.5205 90.6317 62.5317 90.824 61.5635C92.248 54.3964 84.7794 48.1771 77.4628 47.0973C75.1536 46.7565 72.6729 46.6973 70.7452 45.3967C69.5471 44.5883 68.6969 43.3805 67.8743 42.2002C65.64 38.9945 63.4057 35.7887 61.1713 32.583C59.731 30.5165 58.2397 27.884 59.4072 25.656C61.8629 20.9696 75.5 27.5 79 21.28C79.7854 19.2995 72.9059 16.029 70.9918 15.0529C69.0777 14.0767 66.8076 14.123 64.6627 14.3214C62.0673 14.5614 59.4474 15.0037 57.1067 16.1363C54.3226 17.4836 52.0886 19.7292 49.4154 21.28C46.7421 22.8308 42.1336 23.8456 39.6023 22.0777Z" fill="#009345"/>
<path d="M36.7947 22.4259C34.4709 22.7831 32.2176 23.5805 30.3213 24.9713C28.4472 26.346 27.0177 28.1202 25.8299 30.0886C24.3428 32.5533 23.1941 35.1988 22.5497 37.9984C21.8504 41.0362 21.6355 44.1794 21.6928 47.2875C21.7939 52.7703 22.4726 58.2996 24.6847 63.3747C25.7475 65.8128 27.215 68.0916 29.1198 69.9809C31.3601 72.2031 34.1073 73.7057 37.0375 74.8596C39.6587 75.8918 42.411 76.6106 45.1759 77.1589C47.944 77.7079 50.7879 78.0882 53.6163 78.0724C59.2089 78.0412 65.0168 76.338 68.6782 71.9499C72.491 67.3803 73.5576 61.3226 72.8839 55.5704C72.2219 49.9174 70.4191 44.3262 67.6775 39.3128C64.9951 34.4081 61.2339 30.0634 56.4906 26.9893C54.214 25.5138 51.6502 24.4539 49.0562 23.6416C46.4504 22.8257 43.6702 22.3205 40.937 22.2027C39.5352 22.1422 38.1903 22.2325 36.811 22.4843C35.7593 22.6762 35.991 24.4017 37.0649 24.3291C39.5896 24.1584 42.1603 24.0514 44.6675 24.4688C47.1982 24.8901 49.7354 25.753 51.9791 26.9737C56.51 29.4384 60.4824 32.6616 63.3339 36.9554C66.1638 41.2166 67.8079 46.2993 68.0824 51.3707C68.2203 53.918 68.1061 56.4522 67.8193 58.985C67.7841 59.2963 67.8212 58.9649 67.8291 58.9149C67.8031 59.0794 67.779 59.2442 67.7515 59.4085C67.7035 59.6964 67.6507 59.9835 67.5932 60.2698C67.47 60.8831 67.3278 61.4941 67.1879 62.104C67.0579 62.6712 66.906 63.2338 66.7295 63.7888C66.6294 64.1038 66.5213 64.4166 66.4049 64.7262C66.3616 64.8416 66.3106 64.9555 66.2705 65.0719C66.1645 65.3798 66.4478 64.7183 66.219 65.1949C65.971 65.7113 65.7166 66.2212 65.4228 66.7145C65.2767 66.9598 65.1229 67.2007 64.9625 67.4373C64.8707 67.5726 64.7763 67.7058 64.6803 67.8382C64.6135 67.9304 64.2573 68.3805 64.61 67.9491C64.2439 68.3968 63.8545 68.8247 63.4343 69.2241C63.2315 69.4168 63.0221 69.6029 62.8074 69.7827C62.7163 69.8591 62.6221 69.9318 62.5313 70.0085C62.9701 69.6378 62.5521 69.9884 62.4467 70.062C61.9994 70.3742 61.5333 70.6595 61.0517 70.9175C60.8123 71.0458 60.5693 71.1676 60.3229 71.2824C60.1822 71.348 60.0402 71.411 59.8977 71.4726C60.2602 71.3159 60.0743 71.398 59.8161 71.4933C58.7444 71.8884 57.6314 72.1697 56.5036 72.3583C56.3457 72.3848 56.1876 72.4081 56.0293 72.4321C56.1354 72.4161 56.6055 72.3691 56.0578 72.4251C55.7754 72.454 55.4934 72.4826 55.2102 72.5041C54.5977 72.5507 53.9835 72.575 53.3692 72.5797C52.1207 72.5895 50.872 72.5196 49.6306 72.3921C49.3388 72.3621 49.0479 72.3255 48.7565 72.2925C48.4291 72.2554 48.824 72.301 48.8678 72.3075C48.7018 72.283 48.5356 72.2603 48.3697 72.2354C47.7495 72.142 47.1314 72.0361 46.5154 71.9195C45.2616 71.6823 44.017 71.3996 42.7805 71.0875C41.4565 70.7534 40.1345 70.4254 38.8379 69.996C38.4828 69.8784 38.1295 69.7547 37.7791 69.6239C37.6481 69.575 37.5177 69.5242 37.3873 69.4738C36.957 69.3076 37.6576 69.5937 37.2324 69.413C36.5898 69.1401 35.9606 68.8326 35.3507 68.495C34.7795 68.1788 34.2383 67.8248 33.6984 67.4605C33.2969 67.1895 33.5289 67.3419 33.6179 67.4098C33.5216 67.3363 33.4274 67.2597 33.3335 67.1834C33.053 66.9557 32.7797 66.7194 32.5146 66.4746C32.1055 66.0968 31.7162 65.6988 31.3449 65.2851C31.1601 65.0792 30.9794 64.8695 30.8028 64.6567C30.7272 64.5656 30.6513 64.4745 30.5784 64.3814C30.7876 64.649 30.4809 64.2412 30.4463 64.1938C27.6274 60.333 26.3644 55.7927 25.6821 51.018C24.9368 45.8016 24.8893 40.0707 26.7446 35.0099C28.1181 31.2635 30.445 27.3241 34.1602 25.4523C35.1648 24.9461 36.2398 24.6116 37.3352 24.3539C38.6338 24.0485 38.0571 22.2319 36.7947 22.4259Z" fill="#0B3335"/>
<path d="M28.5936 27.1089C25.957 25.8278 24.1161 23.4897 23.0841 20.8152C22.572 19.488 22.2084 18.0812 22.049 16.669C21.8768 15.1419 21.8901 13.3001 22.8169 11.9891C23.5152 11.0013 24.7763 10.2501 25.799 9.9079C26.0926 9.80966 26.392 9.72706 26.6947 9.66049C26.8465 9.62707 27.001 9.59612 27.1548 9.57201C26.8265 9.62339 27.3055 9.56044 27.3839 9.55494C27.7299 9.53077 28.0782 9.51455 28.4252 9.52256C28.5901 9.52638 28.7533 9.53872 28.9177 9.54861C29.3971 9.57744 28.8903 9.50938 29.3185 9.60413C32.1834 10.2379 35.0457 11.5264 36.9993 13.9655C37.9798 15.1897 39.0111 16.7971 38.9885 18.3959C38.9647 20.0725 37.8593 21.3999 37.6409 23.0001C37.5789 23.454 38.0863 23.8506 38.5035 23.8484C40.6249 23.8368 41.7225 21.4156 41.9974 19.6533C42.2981 17.7255 42.0609 15.4367 41.2454 13.6505C40.41 11.8206 39.06 10.1337 37.6427 8.70451C36.1403 7.18934 34.23 5.86263 32.1173 5.33511C28.066 4.32342 23.6734 5.61884 21.194 8.99911C18.8991 12.1279 19.4615 16.2028 20.5345 19.6886C21.6817 23.4155 24.0145 26.9324 27.7073 28.6C28.7203 29.0574 29.6162 27.6058 28.5936 27.1089Z" fill="#0B3335"/>
<path d="M23.7971 33.4836C19.3553 33.4548 16.2611 37.349 14.1508 40.7251C11.8972 44.3303 10.2067 48.4648 9.51559 52.652C8.84745 56.6993 8.61374 61.1487 10.1594 65.0414C10.9194 66.9552 12.0577 69.0883 14.022 70.0217C14.9949 70.4839 16.0663 70.7235 17.127 70.3958C18.3651 70.0134 19.1504 68.926 19.2481 67.6742C19.3384 66.5165 19.0037 65.3317 19.0274 64.1614C19.0534 62.877 19.1226 61.5798 19.3494 60.3131C19.5769 59.0428 19.869 57.7764 20.198 56.5279C20.5261 55.2825 20.9975 54.0861 21.3216 52.8392C21.4683 52.2748 20.7112 51.9913 20.3925 52.454C19.2991 54.041 18.5528 55.9513 17.9554 57.7731C17.3711 59.5547 16.8927 61.3972 16.524 63.2336C16.3316 64.1915 16.1329 65.1493 15.9509 66.1092C15.9205 66.2696 15.8582 66.4682 15.8556 66.628C15.8493 67.0236 15.7062 66.8468 15.9481 66.7602C16.084 66.7116 16.275 66.589 16.4222 66.5301L16.6099 66.5446C16.4827 66.5185 16.3582 66.4829 16.2366 66.4377C16.5613 66.5759 16.2241 66.4062 16.1898 66.3745C15.7122 65.9308 16.3804 66.6922 15.9726 66.1892C15.8878 66.0845 15.5136 65.6589 15.5775 65.7418C15.3233 65.4118 15.0977 65.0573 14.8916 64.6965C14.7092 64.377 14.4799 63.9039 14.4214 63.7571C13.25 60.8177 13.3002 57.4616 13.7377 54.3664C14.235 50.8481 15.2333 47.3807 16.8582 44.2023C17.7392 42.4789 18.7698 40.7908 19.9595 39.2548C20.8845 38.0607 22.1892 36.7548 23.7972 36.6042C25.7932 36.4173 25.8778 33.497 23.7971 33.4836Z" fill="#0B3335"/>
<path d="M39.9228 74.8761C39.2482 77.558 39.1287 80.3159 39.5454 83.0458C39.9424 85.6472 40.6677 88.4539 42.2356 90.6296C44.0559 93.1555 46.7696 95.5854 50.0128 95.9625C51.6446 96.1523 53.3668 95.6134 54.5339 94.4456C55.8067 93.172 56.0868 91.2449 55.5214 89.5905C54.9205 87.8325 53.716 86.3836 53.2443 84.5709C52.7694 82.7458 52.5437 80.6858 53.1402 78.8704C53.231 78.5943 52.8001 78.413 52.6616 78.672C52.0234 79.8658 51.4191 81.0573 51.1985 82.3989C50.961 83.843 51.0163 85.2569 51.3987 86.6736C51.7375 87.9292 52.4032 89.2126 52.4158 90.5304C52.4202 90.9989 52.2977 91.3366 51.9746 91.6084C51.7309 91.8135 51.2612 91.9805 51.048 92.0098C48.7939 92.3193 46.6771 90.3765 45.3471 88.8307C43.9442 87.2001 42.7561 85.2511 42.237 83.1463C41.6183 80.6383 41.5813 77.9937 42.0914 75.4641C42.3702 74.0822 40.2736 73.4812 39.9228 74.8761Z" fill="#0B3335"/>
<path d="M48.8122 24.1531C50.4561 21.2548 53.6229 19.5264 56.6964 18.4228C60.4664 17.0691 64.4697 16.3022 68.4927 16.5374C70.4683 16.6529 72.4401 17.063 74.2785 17.7912C75.6506 18.3347 77.2991 19.1032 77.9359 20.5111C78.5444 21.8564 78.2553 23.4495 77.175 24.4368C76.0102 25.5014 74.6873 25.5207 73.1531 25.073C71.9914 24.734 70.8654 24.2647 69.6702 24.0405C68.2832 23.7803 67.0876 23.8697 65.7037 24.0838C63.2325 24.466 60.6465 24.2976 58.2187 24.9166C57.5482 25.0875 57.4525 26.2453 58.2187 26.348C60.7346 26.6855 63.2472 26.2087 65.7037 26.9898C66.8745 27.362 67.9951 27.7173 69.1956 27.9925C70.4696 28.2847 71.691 28.7794 72.9774 29.0191C75.4299 29.476 77.8259 28.9061 79.6873 27.2352C81.305 25.7832 82.1315 23.5685 81.8952 21.4343C81.3334 16.36 75.9708 14.2136 71.4406 13.5269C66.7445 12.8151 61.9662 13.4962 57.5067 15.0454C53.3426 16.4919 48.2474 18.801 47.3482 23.5461C47.19 24.3806 48.3439 24.9787 48.8122 24.1531Z" fill="#0B3335"/>
<path d="M70.8194 47.5614C74.3219 46.975 78.3102 47.3496 81.4659 49.0191C84.2996 50.5183 86.5544 53.0387 87.6951 56.0026C88.2576 57.4644 88.6058 59.0254 88.5426 60.5933C88.5172 61.2227 88.4176 61.849 88.169 62.4492C87.9616 62.9499 87.5551 63.4886 87.2112 63.7292C86.3435 64.3361 85.1295 64.2947 84.4354 63.7666C83.8251 63.3021 83.5779 62.5537 83.1806 61.9266C82.7339 61.2215 82.1552 60.5666 81.5105 60.0288C80.0716 58.8285 78.351 58.0253 76.479 57.7561C74.655 57.4937 72.8836 57.9134 71.2497 58.7264C70.3873 59.1555 71.0122 60.3724 71.8788 60.1938C73.4142 59.8773 75.1672 60.2407 76.573 60.8989C78.1036 61.6156 79.0061 62.6549 79.7893 64.0269C80.8295 65.8489 82.091 67.404 84.2758 67.8822C86.346 68.3352 88.5658 67.835 90.0212 66.2584C92.6394 63.4224 92.313 58.9535 91.0315 55.6054C89.6535 52.0051 87.0624 48.8501 83.6219 46.9701C79.4899 44.7123 74.5813 44.2886 70.2853 46.3154C69.5265 46.6734 70.1011 47.6816 70.8194 47.5614Z" fill="#0B3335"/>
</g>
<defs>
<clipPath id="clip0_2568_2237">
<rect width="83" height="91" fill="white" transform="translate(9 5)"/>
</clipPath>
</defs>
</svg>

<svg xmlns="http://www.w3.org/2000/svg" width="100" height="100" fill="none" viewBox="0 0 100 100"><g clip-path="url(#a)"><path fill="#009345" d="M39.602 22.078c.431-4.716-.83-9.99-4.744-12.726-3.915-2.735-10.656-1.189-11.623 3.45-1.212 5.815 6.553 10.42 5.995 16.332-.37 3.919-4.163 6.457-7.104 9.115-4.954 4.478-8.219 10.737-9.034 17.32-.442 3.567.664 8.215 4.264 8.75a31.05 31.05 0 0 1 5.205-11.705c5.021 4.603 6.84 11.78 11.544 16.699 2.09 2.187 4.759 3.941 6.144 6.62 1.612 3.12 1.182 6.922 2.515 10.168 1.332 3.246 6.31 5.465 8.24 2.526 1.378-2.095-.089-4.93.516-7.356.855-3.432 5.114-4.5 8.171-6.339 3.83-2.303 6.15-6.36 9.19-9.615s7.811-5.863 11.892-4.026c2.968 1.337 6.11 4.812 8.685 2.835.79-.606 1.174-1.594 1.366-2.563 1.424-7.167-6.045-13.386-13.361-14.466-2.31-.34-4.79-.4-6.718-1.7-1.198-.809-2.048-2.017-2.87-3.197l-6.704-9.617c-1.44-2.066-2.931-4.699-1.764-6.927C61.863 20.97 75.5 27.5 79 21.28c.785-1.98-6.094-5.251-8.008-6.227s-4.184-.93-6.33-.732c-2.595.24-5.215.683-7.555 1.815-2.784 1.348-5.018 3.593-7.692 5.144-2.673 1.55-7.281 2.566-9.813.798"/><path fill="#0b3335" d="M36.795 22.426c-2.324.357-4.577 1.155-6.474 2.545-1.874 1.375-3.303 3.15-4.491 5.118-1.487 2.464-2.636 5.11-3.28 7.91-.7 3.037-.915 6.18-.857 9.289.1 5.482.78 11.012 2.992 16.087 1.063 2.438 2.53 4.717 4.435 6.606 2.24 2.222 4.987 3.725 7.918 4.879 2.62 1.032 5.373 1.75 8.138 2.299 2.768.549 5.612.93 8.44.913 5.593-.03 11.4-1.734 15.062-6.122 3.813-4.57 4.88-10.627 4.206-16.38-.662-5.653-2.465-11.244-5.207-16.257-2.682-4.905-6.443-9.25-11.186-12.324-2.277-1.475-4.84-2.535-7.435-3.347a32 32 0 0 0-8.119-1.44c-1.402-.06-2.747.03-4.126.282-1.052.192-.82 1.918.254 1.845 2.525-.17 5.095-.278 7.602.14a23.6 23.6 0 0 1 7.312 2.505c4.531 2.464 8.503 5.688 11.355 9.981 2.83 4.262 4.474 9.344 4.748 14.416.138 2.547.024 5.081-.263 7.614-.035.311.002-.02.01-.07q-.037.247-.078.493-.07.432-.158.862c-.123.613-.265 1.224-.405 1.834q-.194.852-.459 1.685-.15.473-.324.937c-.043.116-.094.23-.135.346-.105.308.178-.354-.051.123a19 19 0 0 1-.796 1.52 15 15 0 0 1-.743 1.123c-.067.092-.423.543-.07.111a14 14 0 0 1-1.176 1.275q-.305.29-.627.559c-.09.076-.185.149-.276.225.44-.37.021-.02-.084.054a14 14 0 0 1-2.124 1.22q-.211.099-.425.19c.362-.156.176-.074-.082.021a18.3 18.3 0 0 1-3.312.865q-.237.04-.475.074c.106-.016.576-.063.029-.007q-.424.045-.848.08-.92.068-1.84.075a34 34 0 0 1-3.74-.188c-.291-.03-.582-.066-.873-.1-.328-.037.067.009.11.016l-.497-.073a50 50 0 0 1-1.855-.316 64 64 0 0 1-3.734-.831c-1.325-.335-2.646-.663-3.943-1.092a30 30 0 0 1-1.059-.372l-.392-.15c-.43-.166.27.12-.155-.061a20 20 0 0 1-1.881-.918 22 22 0 0 1-1.653-1.035c-.401-.27-.17-.118-.08-.05q-.143-.111-.285-.227a17 17 0 0 1-1.988-1.898 21 21 0 0 1-.542-.628q-.115-.136-.225-.276c.21.268-.097-.14-.132-.187-2.819-3.861-4.082-8.401-4.764-13.176-.745-5.216-.793-10.947 1.063-16.008 1.373-3.746 3.7-7.686 7.415-9.558 1.005-.506 2.08-.84 3.175-1.098 1.299-.305.722-2.122-.54-1.928"/><path fill="#0b3335" d="M28.594 27.109c-2.637-1.281-4.478-3.62-5.51-6.294a16.9 16.9 0 0 1-1.035-4.146c-.172-1.527-.159-3.369.768-4.68.698-.988 1.96-1.739 2.982-2.081a9 9 0 0 1 1.356-.336c-.329.051.15-.012.229-.017.346-.024.694-.04 1.041-.032.165.003.328.016.493.026.48.028-.028-.04.4.055 2.865.634 5.728 1.922 7.681 4.362.98 1.224 2.012 2.831 1.99 4.43-.024 1.677-1.13 3.004-1.348 4.604-.062.454.445.85.863.848 2.12-.011 3.218-2.432 3.493-4.195.301-1.927.064-4.216-.752-6.002-.835-1.83-2.185-3.517-3.602-4.946-1.503-1.516-3.413-2.842-5.526-3.37C28.066 4.323 23.673 5.62 21.194 9c-2.295 3.129-1.732 7.204-.66 10.69 1.148 3.727 3.48 7.243 7.173 8.911 1.013.457 1.91-.994.887-1.491M23.797 33.484c-4.442-.03-7.536 3.865-9.646 7.241-2.254 3.605-3.944 7.74-4.635 11.927-.669 4.047-.902 8.497.643 12.39.76 1.913 1.899 4.046 3.863 4.98.973.462 2.044.701 3.105.374 1.238-.383 2.023-1.47 2.121-2.722.09-1.158-.244-2.342-.22-3.513.025-1.284.095-2.581.321-3.848.228-1.27.52-2.537.849-3.785.328-1.245.8-2.442 1.124-3.689.146-.564-.61-.848-.93-.385-1.093 1.587-1.84 3.497-2.437 5.32a48 48 0 0 0-1.431 5.46c-.192.958-.391 1.915-.573 2.875-.03.16-.093.36-.095.519-.007.396-.15.219.092.132.136-.048.327-.171.474-.23l.188.015a2.5 2.5 0 0 1-.373-.107c.324.138-.013-.032-.047-.064-.478-.443.19.318-.217-.185-.085-.104-.46-.53-.396-.447a9 9 0 0 1-.685-1.046c-.183-.319-.412-.792-.47-.939-1.172-2.94-1.122-6.295-.684-9.39.497-3.519 1.495-6.986 3.12-10.165.881-1.723 1.912-3.411 3.101-4.947.925-1.194 2.23-2.5 3.838-2.65 1.996-.188 2.08-3.108 0-3.121M39.923 74.876a20.6 20.6 0 0 0-.378 8.17c.397 2.601 1.123 5.408 2.69 7.584 1.82 2.526 4.535 4.955 7.778 5.333 1.632.19 3.354-.35 4.52-1.517 1.274-1.274 1.554-3.201.988-4.855-.6-1.758-1.805-3.207-2.277-5.02-.475-1.825-.7-3.885-.104-5.7.091-.277-.34-.458-.478-.199-.639 1.194-1.243 2.385-1.463 3.727a9.95 9.95 0 0 0 .2 4.275c.338 1.255 1.004 2.539 1.017 3.856.004.469-.118.807-.441 1.078-.244.206-.714.373-.927.402-2.254.31-4.37-1.634-5.7-3.18-1.404-1.63-2.592-3.579-3.111-5.684a17.64 17.64 0 0 1-.146-7.682c.28-1.382-1.817-1.983-2.168-.588M48.812 24.153c1.644-2.898 4.81-4.627 7.884-5.73 3.77-1.354 7.774-2.12 11.797-1.886 1.975.116 3.947.526 5.785 1.254 1.373.544 3.021 1.312 3.658 2.72.608 1.345.32 2.939-.761 3.926-1.165 1.064-2.488 1.084-4.022.636-1.162-.339-2.288-.808-3.483-1.032-1.387-.26-2.582-.171-3.966.043-2.471.382-5.057.214-7.485.833-.67.17-.767 1.328 0 1.431 2.516.338 5.028-.14 7.485.642 1.17.372 2.291.727 3.492 1.003 1.274.292 2.495.786 3.781 1.026 2.453.457 4.849-.113 6.71-1.784 1.618-1.452 2.445-3.666 2.208-5.8-.562-5.075-5.924-7.221-10.454-7.908-4.696-.712-9.475-.03-13.934 1.518-4.164 1.447-9.26 3.756-10.159 8.501-.158.835.996 1.433 1.464.607M70.82 47.561c3.502-.586 7.49-.211 10.646 1.458 2.834 1.5 5.088 4.02 6.23 6.984.562 1.461.91 3.022.847 4.59-.026.63-.125 1.256-.374 1.856-.207.5-.614 1.04-.958 1.28-.867.607-2.082.566-2.776.038-.61-.465-.857-1.213-1.254-1.84a8.3 8.3 0 0 0-1.67-1.898c-1.44-1.2-3.16-2.004-5.032-2.273-1.824-.262-3.595.157-5.23.97-.862.43-.237 1.646.63 1.468 1.535-.317 3.288.047 4.694.705 1.53.717 2.433 1.756 3.216 3.128 1.04 1.822 2.302 3.377 4.487 3.855 2.07.453 4.29-.047 5.745-1.624 2.618-2.836 2.292-7.304 1.01-10.653-1.378-3.6-3.969-6.755-7.41-8.635-4.131-2.258-9.04-2.681-13.336-.655-.758.358-.184 1.367.534 1.246"/></g><defs><clipPath id="a"><path fill="#fff" d="M9 5h83v91H9z"/></clipPath></defs></svg>
